X: 648
T: The pigeon on the gate
C: anon.
O: Ireland
B: Francis O'Neill: "The Dance Music of Ireland" (1907) no. 648
R: Reel
Z: Transcribed by Frank Nordberg - http://www.musicaviva.com
F: http://www.musicaviva.com/abc/tunes/ireland/oneill-1001/oneill-1001-064
8.abc
M: C|
L: 1/8
K: G
gf|e>A (3AAA egfg|e>A (3AAA e2dB|[1G2(BG) dGBG|Bdef g2(fg):|[2GABd g2ga|b
agb a2||
(ag)|eaag abag|eaab c'bag|eggf gage|dega bgag|eaag abag|eaab c'bag|edef g
age|dBGB A2|]
W:
W:
W: From Musica Viva - http://www.musicaviva.com
W: the Internet center for free sheet music downloads.


